X:1
T:Ringe Recht, 87.87
T:Johann Thommen, 1745
T:Ringe Recht, 87.87
T:Public Domain
C:Johann Thommen, 1745
Z:Public Domain
%%score ( 1 2 ) ( 3 4 )
L:1/8
M:4/4
K:G
V:1 treble 
V:2 treble 
V:3 bass 
V:4 bass 
V:1
 [DG]2 [FA]2 [GB]2 (G[FA]) | [GB]2 [Gc]2 [Fd]4 | [GB]4 [Ge]2 [Fd]2 | [Gd]2 [GB]2 [Fc]2 [Ac]2 | %4
 [GB]4 [Gd]2 [Gd]2 | [Fd]2 [FA]2 [GB]2 [Ac]2 | [GB]4 [FA]4 | G2 [FA]2 [GB]2 [Ac]2 | %8
 [GB]2 [FA]2 G4 |] %9
V:2
 x8 | x8 | x8 | x8 | x8 | x8 | x8 | G2 x6 | x4 G4 |] %9
V:3
 [G,B,]2 [D,D]2 [G,D]2 (B,A,) | (G,F,) [E,C]2 [D,A,]4 | G,4 [C,C]2 [D,A,]2 | %3
 [G,B,]2 [G,D]2 [A,D]2 [D,D]2 | [G,D]4 [G,,B,]2 [B,,G,]2 | [D,A,]2 [D,D]2 [G,D]2 [C,E]2 | %6
 [D,D]4 [D,D]4 | [B,D]2 [A,D]2 [G,D]2 [C,E]2 | [D,D]2 [D,C]2 [G,B,]4 |] %9
V:4
 x6 D2 | D2 x6 | G,4 x4 | x8 | x8 | x8 | x8 | x8 | x8 |] %9

